icons/facebook.svg

<?xml version="1.0" encoding="UTF-8"?>
<svg width="44px" height="44px" viewBox="0 0 44 44" version="1.1" xmlns="http://www.w3.org/2000/svg" xmlns:xlink="http://www.w3.org/1999/xlink">
    <title>facebook</title>
    <defs></defs>
    <g id="social-icons" stroke="none" stroke-width="1" fill="none" fill-rule="evenodd" transform="translate(-40.000000, -40.000000)">
        <g id="facebook" transform="translate(40.000000, 40.000000)">
            <rect id="Rectangle" x="0" y="0" width="44" height="44"></rect>
            <circle id="Oval" stroke="#9B9B9B" stroke-width="2" cx="22" cy="22" r="21"></circle>
            <path d="M23.3147057,35 L18.4372418,35 L18.4372418,23.4985483 L16,23.4985483 L16,19.535534 L18.4372418,19.535534 L18.4372418,17.1562737 C18.4372418,13.9234411 19.8127074,12 23.7230238,12 L26.9776468,12 L26.9776468,15.964466 L24.9435074,15.964466 C23.4212558,15.964466 23.3206665,16.5182719 23.3206665,17.5518493 L23.3139606,19.535534 L27,19.535534 L26.5685836,23.4985483 L23.3139606,23.4985483 L23.3139606,35 L23.3147057,35 Z" id="Shape" fill="#9B9B9B"></path>
        </g>
    </g>
</svg>

<svg width="44" height="44" xmlns="http://www.w3.org/2000/svg"><g fill="none" fill-rule="evenodd"><path d="M0 0h44v44H0z"/><circle stroke="#9B9B9B" stroke-width="2" cx="22" cy="22" r="21"/><path d="M23.315 35h-4.878V23.499H16v-3.963h2.437v-2.38c0-3.233 1.376-5.156 5.286-5.156h3.255v3.964h-2.034c-1.523 0-1.623.554-1.623 1.588l-.007 1.984H27l-.431 3.963h-3.255V35z" fill="#9B9B9B"/></g></svg>
